src/img/logo-footer.svg

<svg xmlns="http://www.w3.org/2000/svg" viewBox="0 0 82 30"><path d="M22.3.2V4L5.1 24.7h14v-3.2h3.2v5.9H2.1v-3.9L19 2.9H5.2v3.2H2V.2h20.3zM3 6.7l2.2 1.5-2.7-1.5H3zm1.3 21.4l2.6 1.8h-1l-2.6-1.8h1zm.8-21.4l2.6 1.8h-1L4 6.7h1.1zm1.3 21.4L9 29.9H7.9l-2.6-1.8h1.1zm.4-24.6l2.6 1.8h-.1V6L5.8 3.5h1zm2.5 3.2v.7L5.8 5v-.7l3.5 2.4zm0 1.5v.3h-.6L5.8 6.4v-.7l3.5 2.5zM6.6 23.8l.4.4h-.7l.3-.4zm.8-.9l1.8 1.3H8.1L7 23.4l.4-.5zm1.1 5.2l2.6 1.8H10l-2.6-1.8h1.1zM8.1 22l3.1 2.2h-1.1l-2.4-1.7.4-.5zm.8-18.5l2.6 1.8h-1L7.8 3.5h1.1zm0 17.6l3.3 2.3-.4.5-3.3-2.3.4-.5zm.7-1l3.3 2.3-.4.5-3.3-2.3.1-.1.3-.4zm.9 8l2.6 1.8h-1l-2.6-1.8h1zM11 3.5l2.6 1.8h-1.1L10 3.5h1zm-.6 15.7l3.3 2.3-.3.5-3.3-2.3.3-.5zm.8-.9l3.3 2.3-.4.4-3.3-2.3.1-.1.1-.1.2-.2zm.8-.9l3.3 2.3-.4.5-3.3-2.3.4-.5zm.7 10.7l2.6 1.8h-1.1l-2.6-1.8h1.1zm.4-24.6l2.6 1.8h-1.1L12 3.5h1.1zm-.4 12.9l3.3 2.3-.4.5-3.3-2.3.2-.2.2-.3zm.8-.9l3.3 2.3-.4.5-3.3-2.3.4-.5zm1.2 12.6l2.6 1.8h-1.1l-2.6-1.8h1.1zm-.4-13.5l3.3 2.3-.4.5-3.3-2.4.4-.4zm.9-11.1l1.7 1.2-.3.4-.1.1-2.3-1.6 1-.1zm-.1 10.1l3.3 2.3-.4.5-3.3-2.3V14l.1-.1.3-.3zm.7-.9l3.3 2.3-.4.5-3.3-2.3.2-.3.1-.1.1-.1zm1.1 15.4l2.6 1.8h-1.1l-2.6-1.8h1.1zm.4-24.6l.3.3-.2.2-.2.2-1-.7h1.1zm-.7 8.3l3.3 2.3-.4.4-3.2-2.3.3-.4zm.7-.9l3.3 2.3-.4.5-3.2-2.3.3-.5zm.8-1l3.3 2.3-.4.5-3.3-2.3.2-.2.2-.3zm.8 18.2l2.6 1.8h-1.1l-2.6-1.8h1.1zm0-19.1l3.3 2.3-.4.5-3.3-2.3.1-.1.3-.4zm.8-.9l3.3 2.3-.4.5-3.3-2.3.4-.5zm1.3 20l2.6 1.8h-1L20 28.1h1zm-.6-20.9l3.3 2.3-.4.4L20 7.7l.2-.2.2-.3zm.8-.9l3.3 2.3-.4.4-3.3-2.3.4-.4zm.8-1l3.3 2.3-.4.4-3.3-2.3.2-.3.2-.1zm.8 22.6l2.9 2h-1.1L22 28.1h.8v-.2zm-.1-23.5L26 6.7l-.4.5-3.3-2.3.2-.2.2-.3c-.1.1 0 0 0 0zm3.6 20.1v.7l-3.5-2.4V22l3.5 2.5zm0 1.4v.7l-3.5-2.4v-.7l3.5 2.4zm0 1.5v.7l-3.5-2.4V25l3.5 2.4zm0 1.4v.7l-3.5-2.4v-.7l3.5 2.4zm.1-26.2v.7L22.9.9V.2l.2.2 3.3 2.2zm0 1.4v.7l-3.5-2.4v-.7L26.4 4zm0 1.5v.7l-3.5-2.4v-.7l3.5 2.4zm-.1 18.1v.2l-1.3-1 1.3.8zm20.6-2.1v5.9H27.4v-2.8h2.7V2.9h-2.7V.1H47V6h-3.4V2.9H33.3v9.3h9.9V15h-9.9v9.8h10.2v-3.2l3.4-.1zM29.5 4.4l-1.6-.9h.4l1.2.9zm.4 23.6l2.6 1.8h-1.1L28.8 28h1.1zm-.4-24.5v.2l-.2-.2h.2zM32 28l2.6 1.8h-1L31 28h1zm2.1 0l2.6 1.8h-1.1L33 28h1.1zm3.2-22.6v.7l-3.4-2.4v-.2h.6l2.8 1.9zm0 1.5v.7l-3.4-2.4v-.7l3.4 2.4zm0 1.5v.7l-3.4-2.4V6l3.4 2.4zm0 1.4v.7l-3.4-2.4v-.7l3.4 2.4zm0 1.5v.3h-.7l-2.8-2v-.7l3.5 2.4zm-3.4-1l1.8 1.3h-1.1l-.7-.6v-.7zm3.4 8.3v.7l-3.4-2.4v-.7l3.4 2.4zm0 1.5v.7l-3.4-2.4v-.7l3.4 2.4zm0 1.5v.7l-3.4-2.4v-.7l3.4 2.4zm0 1.4v.7l-3.4-2.4v-.7l3.4 2.4zm-3.4-1l3 2.1h-1.1l-1.9-1.3V22zm0 1.5l.8.6h-.8v-.6zm1.1-8l2.6 1.8h-.2v.6L34 15.5h1zM36.2 28l2.6 1.8h-1.1L35.1 28h1.1zm.4-24.5l2.6 1.8h-1l-2.7-1.8h1.1zm.5 12l2.6 1.8h-1.1L36 15.5h1.1zM38.2 28l2.6 1.8h-1L37.2 28h1zm.5-24.5l2.6 1.8h-1.1l-2.6-1.8h1.1zm.4 12l2.6 1.8h-1.1L38 15.5h1.1zM40.4 28l2.6 1.8h-1.1L39.3 28h1.1zM43 5v.3h-.6l-2.6-1.8h1.1L43 5zm-1.8 10.5l2.6 1.8h-1l-2.6-1.8h1zM42.4 28l2.6 1.8h-1L41.4 28h1zM43 3.6v.7l-1.1-.8h1l.1.1zm.3 11.9l2.6 1.8h-1.1l-2.6-1.8h1.1zM44.6 28l2.6 1.8h-1.1L43.5 28h1.1zm2.7-12.7v.7l-3.5-2.4v-.7l3.5 2.4zm0 1.5v.5H47l-3.2-2.2v-.7l3.5 2.4zm0-2.6v.4l-3.2-2.2 3.2 1.8zm-2-7.6l2.6 1.8h-.6l-2-1.1-1-.7h1zM46.6 28l2.6 1.8h-1.1L45.6 28h1zm.8-21.4L50 8.4h-1l-2.6-1.8h1zM51 2.1v.4L47.6.1l3.4 2zm0 1.2V4l-3.4-2.4V.9L51 3.3zm0 1.5v.7L47.5 3v-.7L51 4.8zm0 1.4V7l-3.4-2.4v-.8L51 6.2zm0 1.5v.7L47.5 6v-.7L51 7.7zm0 16.1v.7l-3.4-2.4v-.5l1.6.9 1.8 1.3zm0 1.5v.7l-3.4-2.4v-.7l3.4 2.4zm0 1.4v.7L47.5 25v-.7l3.5 2.4zm0 1.5v.7l-3.4-2.4v-.7l3.4 2.4zm0 1.4v.2h-.7l-2.8-1.9v-.8l3.5 2.5zM76 .1V6h-3.4V2.7h-7.7v22h3v2.8H59v-2.8h2.7v-22H55V6h-3.3V.1H76zM53 6.6l2.6 1.8h-.3l-3.2-1.8h.9zm2.1 0l2.7 1.8h-1.1l-2.6-1.8h1zm1.5-3.3l2.6 1.8H59v.6l-3.5-2.4h1.1zM59 6.5v.7l-3.5-2.4V4L59 6.5zm0 1.4v.5h-.3l-3.2-2.2v-.7L59 7.9zM61.1 5l-.9.1-2.6-1.8h1.1L61.1 5zm-.5 23l2.6 1.8h-.5L59.5 28h1.1zm.5-24.5v.7l-1.4-1h1.1l.3.3zM62.6 28l2.6 1.8h-1.1L61.6 28h1zm2.2 0l2.6 1.8h-1.1L63.7 28h1.1zM69 6.1v.7l-3.5-2.4v-.7L69 6.1zm0 1.4v.7l-3.5-2.4v-.6L69 7.5zM69 9v.7l-3.5-2.4v-.7L69 9zm0 1.5v.7l-3.5-2.4v-.7l3.5 2.4zm0 1.4v.7l-3.5-2.4v-.7l3.5 2.4zm0 1.5v.7l-3.5-2.4V11l3.5 2.4zm0 1.5v.7l-3.5-2.4v-.7l3.5 2.4zm0 1.5v.7l-3.5-2.4V14l3.5 2.4zm0 1.4v.7l-3.5-2.4v-.7l3.5 2.4zm0 1.5v.7l-3.5-2.4v-.7l3.5 2.4zm0 1.5v.7L65.5 19v-.7l3.5 2.5zm0 1.4v.7l-3.5-2.4v-.7l3.5 2.4zm0 1.5v.7L65.5 22v-.7l3.5 2.4zm-3.5-1l2 1.4h-1l-1-.7v-.7zm1.3 5.3l2.6 1.8h-1.1L65.8 28h1zm.3-24.7l2.6 1.8H69v.3l-3-2.1h1.1zm1.3 24.4l3.1 2.1h-1L67.9 28h.6l-.1-.3zm.7-24.4l2.6 1.8h-1.1L68 3.3h1.1zm2.8 23.9v.7l-3.5-2.4v-.7l3.5 2.4zm0 1.5v.7L68.4 27v-.7l3.5 2.4zM72 3.9v.7l-1.8-1.3h1l.8.6zm1.9 2.7l2.6 1.8h-.2l-3.2-1.8h.8zm2.1 0l2.6 1.8h-1.1l-2.6-1.8H76zm4-4.5v.7L76.6.4V.1L79.8 2l.2.1zm0 1.5v.7l-3.4-2.4v-.7L80 3.6zm0 1.5v.7l-3.4-2.4v-.7L80 5.1zm0 1.4v.7l-3.4-2.4v-.7L80 6.5zM80 8v.4h-.4l-3.1-2.1v-.7L80 8z" fill="#29323c"/></svg>

<?xml version="1.0" encoding="utf-8"?>
<!-- Generator: Adobe Illustrator 22.1.0, SVG Export Plug-In . SVG Version: 6.00 Build 0)  -->
<svg version="1.1" id="Слой_1" xmlns="http://www.w3.org/2000/svg" xmlns:xlink="http://www.w3.org/1999/xlink" x="0px" y="0px"
	 viewBox="0 0 82 30" style="enable-background:new 0 0 82 30;" xml:space="preserve">
<style type="text/css">
	.st0{fill:#29323C;}
</style>
<path class="st0" d="M22.3,0.2V4L5.1,24.7h14v-3.2h3.2v5.9H2.1v-3.9L19,2.9H5.2v3.2H2V0.2H22.3z M3,6.7l2.2,1.5L2.5,6.7H3z
	 M4.3,28.1l2.6,1.8h-1l-2.6-1.8H4.3z M5.1,6.7l2.6,1.8h-1L4,6.7C4,6.7,5.1,6.7,5.1,6.7z M6.4,28.1L9,29.9H7.9l-2.6-1.8
	C5.3,28.1,6.4,28.1,6.4,28.1z M6.8,3.5l2.6,1.8H9.3V6L5.8,3.5C5.8,3.5,6.8,3.5,6.8,3.5z M9.3,6.7v0.7L5.8,5V4.3
	C5.8,4.3,9.3,6.7,9.3,6.7z M9.3,8.2v0.3H8.7L5.8,6.4V5.7C5.8,5.7,9.3,8.2,9.3,8.2z M6.6,23.8L7,24.2H6.3C6.3,24.2,6.6,23.8,6.6,23.8
	z M7.4,22.9l1.8,1.3H8.1L7,23.4L7.4,22.9z M8.5,28.1l2.6,1.8H10l-2.6-1.8H8.5z M8.1,22l3.1,2.2h-1.1l-2.4-1.7L8.1,22z M8.9,3.5
	l2.6,1.8h-1L7.8,3.5H8.9z M8.9,21.1l3.3,2.3l-0.4,0.5l-3.3-2.3L8.9,21.1z M9.6,20.1l3.3,2.3l-0.4,0.5l-3.3-2.3l0.1-0.1
	C9.3,20.5,9.6,20.1,9.6,20.1z M10.5,28.1l2.6,1.8h-1l-2.6-1.8H10.5z M11,3.5l2.6,1.8h-1.1L10,3.5H11z M10.4,19.2l3.3,2.3L13.4,22
	l-3.3-2.3L10.4,19.2z M11.2,18.3l3.3,2.3L14.1,21l-3.3-2.3l0.1-0.1l0.1-0.1C11,18.5,11.2,18.3,11.2,18.3z M12,17.4l3.3,2.3l-0.4,0.5
	l-3.3-2.3L12,17.4z M12.7,28.1l2.6,1.8h-1.1l-2.6-1.8C11.6,28.1,12.7,28.1,12.7,28.1z M13.1,3.5l2.6,1.8h-1.1L12,3.5
	C12,3.5,13.1,3.5,13.1,3.5z M12.7,16.4l3.3,2.3l-0.4,0.5l-3.3-2.3l0.2-0.2L12.7,16.4z M13.5,15.5l3.3,2.3l-0.4,0.5L13.1,16
	C13.1,16,13.5,15.5,13.5,15.5z M14.7,28.1l2.6,1.8h-1.1l-2.6-1.8C13.6,28.1,14.7,28.1,14.7,28.1z M14.3,14.6l3.3,2.3l-0.4,0.5
	L13.9,15L14.3,14.6z M15.2,3.5l1.7,1.2l-0.3,0.4l-0.1,0.1l-2.3-1.6L15.2,3.5L15.2,3.5z M15.1,13.6l3.3,2.3L18,16.4l-3.3-2.3V14
	l0.1-0.1C14.8,13.9,15.1,13.6,15.1,13.6z M15.8,12.7l3.3,2.3l-0.4,0.5l-3.3-2.3l0.2-0.3l0.1-0.1C15.7,12.8,15.8,12.7,15.8,12.7z
	 M16.9,28.1l2.6,1.8h-1.1l-2.6-1.8H16.9z M17.3,3.5l0.3,0.3L17.4,4l-0.2,0.2l-1-0.7C16.2,3.5,17.3,3.5,17.3,3.5z M16.6,11.8l3.3,2.3
	l-0.4,0.4l-3.2-2.3C16.3,12.2,16.6,11.8,16.6,11.8z M17.3,10.9l3.3,2.3l-0.4,0.5L17,11.4C17,11.4,17.3,10.9,17.3,10.9z M18.1,9.9
	l3.3,2.3L21,12.7l-3.3-2.3l0.2-0.2C17.9,10.2,18.1,9.9,18.1,9.9z M18.9,28.1l2.6,1.8h-1.1l-2.6-1.8H18.9z M18.9,9l3.3,2.3l-0.4,0.5
	l-3.3-2.3l0.1-0.1L18.9,9z M19.7,8.1l3.3,2.3l-0.4,0.5l-3.3-2.3L19.7,8.1z M21,28.1l2.6,1.8h-1L20,28.1C20,28.1,21,28.1,21,28.1z
	 M20.4,7.2l3.3,2.3l-0.4,0.4L20,7.7l0.2-0.2C20.2,7.5,20.4,7.2,20.4,7.2z M21.2,6.3l3.3,2.3L24.1,9l-3.3-2.3
	C20.8,6.7,21.2,6.3,21.2,6.3z M22,5.3l3.3,2.3L24.9,8l-3.3-2.3l0.2-0.3C21.8,5.4,22,5.3,22,5.3z M22.8,27.9l2.9,2h-1.1L22,28.1h0.8
	C22.8,28.1,22.8,27.9,22.8,27.9z M22.7,4.4L26,6.7l-0.4,0.5l-3.3-2.3l0.2-0.2L22.7,4.4C22.6,4.5,22.7,4.4,22.7,4.4z M26.3,24.5v0.7
	l-3.5-2.4V22C22.8,22,26.3,24.5,26.3,24.5z M26.3,25.9v0.7l-3.5-2.4v-0.7L26.3,25.9z M26.3,27.4v0.7l-3.5-2.4V25
	C22.8,25,26.3,27.4,26.3,27.4z M26.3,28.8v0.7l-3.5-2.4v-0.7L26.3,28.8z M26.4,2.6v0.7l-3.5-2.4V0.2l0.2,0.2
	C23.1,0.4,26.4,2.6,26.4,2.6z M26.4,4v0.7l-3.5-2.4V1.6C22.9,1.6,26.4,4,26.4,4z M26.4,5.5v0.7l-3.5-2.4V3.1
	C22.9,3.1,26.4,5.5,26.4,5.5z M26.3,23.6v0.2l-1.3-1L26.3,23.6z M46.9,21.5v5.9H27.4v-2.8h2.7V2.9h-2.7V0.1H47V6h-3.4V2.9H33.3v9.3
	h9.9V15h-9.9v9.8h10.2v-3.2L46.9,21.5L46.9,21.5z M29.5,4.4l-1.6-0.9h0.4L29.5,4.4z M29.9,28l2.6,1.8h-1.1L28.8,28H29.9z M29.5,3.5
	v0.2l-0.2-0.2H29.5z M32,28l2.6,1.8h-1L31,28H32z M34.1,28l2.6,1.8h-1.1L33,28H34.1z M37.3,5.4v0.7l-3.4-2.4V3.5h0.6
	C34.5,3.5,37.3,5.4,37.3,5.4z M37.3,6.9v0.7l-3.4-2.4V4.5L37.3,6.9z M37.3,8.4v0.7l-3.4-2.4V6L37.3,8.4z M37.3,9.8v0.7l-3.4-2.4V7.4
	L37.3,9.8z M37.3,11.3v0.3h-0.7l-2.8-2V8.9L37.3,11.3z M33.9,10.3l1.8,1.3h-1.1L33.9,11V10.3z M37.3,18.6v0.7l-3.4-2.4v-0.7
	L37.3,18.6z M37.3,20.1v0.7l-3.4-2.4v-0.7L37.3,20.1z M37.3,21.6v0.7l-3.4-2.4v-0.7L37.3,21.6z M37.3,23v0.7l-3.4-2.4v-0.7L37.3,23z
	 M33.9,22l3,2.1h-1.1l-1.9-1.3C33.9,22.8,33.9,22,33.9,22z M33.9,23.5l0.8,0.6h-0.8V23.5z M35,15.5l2.6,1.8h-0.2v0.6L34,15.5
	C34,15.5,35,15.5,35,15.5z M36.2,28l2.6,1.8h-1.1L35.1,28C35.1,28,36.2,28,36.2,28z M36.6,3.5l2.6,1.8h-1l-2.7-1.8
	C35.5,3.5,36.6,3.5,36.6,3.5z M37.1,15.5l2.6,1.8h-1.1L36,15.5C36,15.5,37.1,15.5,37.1,15.5z M38.2,28l2.6,1.8h-1L37.2,28H38.2z
	 M38.7,3.5l2.6,1.8h-1.1l-2.6-1.8C37.6,3.5,38.7,3.5,38.7,3.5z M39.1,15.5l2.6,1.8h-1.1L38,15.5C38,15.5,39.1,15.5,39.1,15.5z
	 M40.4,28l2.6,1.8h-1.1L39.3,28C39.3,28,40.4,28,40.4,28z M43,5v0.3h-0.6l-2.6-1.8h1.1L43,5z M41.2,15.5l2.6,1.8h-1l-2.6-1.8
	C40.2,15.5,41.2,15.5,41.2,15.5z M42.4,28l2.6,1.8h-1L41.4,28H42.4z M43,3.6v0.7l-1.1-0.8h1C42.9,3.5,43,3.6,43,3.6z M43.3,15.5
	l2.6,1.8h-1.1l-2.6-1.8C42.2,15.5,43.3,15.5,43.3,15.5z M44.6,28l2.6,1.8h-1.1L43.5,28H44.6z M47.3,15.3V16l-3.5-2.4v-0.7
	C43.8,12.9,47.3,15.3,47.3,15.3z M47.3,16.8v0.5H47l-3.2-2.2v-0.7L47.3,16.8z M47.3,14.2v0.4l-3.2-2.2L47.3,14.2z M45.3,6.6l2.6,1.8
	h-0.6l-2-1.1l-1-0.7H45.3z M46.6,28l2.6,1.8h-1.1L45.6,28H46.6z M47.4,6.6L50,8.4h-1l-2.6-1.8C46.4,6.6,47.4,6.6,47.4,6.6z M51,2.1
	v0.4l-3.4-2.4L51,2.1z M51,3.3V4l-3.4-2.4V0.9L51,3.3z M51,4.8v0.7L47.5,3V2.3L51,4.8z M51,6.2V7l-3.4-2.4V3.8
	C47.6,3.8,51,6.2,51,6.2z M51,7.7v0.7L47.5,6V5.3C47.5,5.3,51,7.7,51,7.7z M51,23.8v0.7l-3.4-2.4v-0.5l1.6,0.9
	C49.2,22.5,51,23.8,51,23.8z M51,25.3V26l-3.4-2.4v-0.7L51,25.3z M51,26.7v0.7L47.5,25v-0.7C47.5,24.3,51,26.7,51,26.7z M51,28.2
	v0.7l-3.4-2.4v-0.7L51,28.2z M51,29.6v0.2h-0.7l-2.8-1.9v-0.8C47.5,27.1,51,29.6,51,29.6z M76,0.1V6h-3.4V2.7h-7.7v22h3v2.8H59v-2.8
	h2.7v-22H55V6h-3.3V0.1H76z M53,6.6l2.6,1.8h-0.3l-3.2-1.8C52.1,6.6,53,6.6,53,6.6z M55.1,6.6l2.7,1.8h-1.1l-2.6-1.8
	C54.1,6.6,55.1,6.6,55.1,6.6z M56.6,3.3l2.6,1.8H59v0.6l-3.5-2.4C55.5,3.3,56.6,3.3,56.6,3.3z M59,6.5v0.7l-3.5-2.4V4L59,6.5z
	 M59,7.9v0.5h-0.3l-3.2-2.2V5.5L59,7.9z M61.1,5L61.1,5l-0.9,0.1l-2.6-1.8h1.1L61.1,5z M60.6,28l2.6,1.8h-0.5L59.5,28H60.6z
	 M61.1,3.5v0.7l-1.4-1h1.1C60.8,3.2,61.1,3.5,61.1,3.5z M62.6,28l2.6,1.8h-1.1L61.6,28H62.6z M64.8,28l2.6,1.8h-1.1L63.7,28
	C63.7,28,64.8,28,64.8,28z M69,6.1v0.7l-3.5-2.4V3.7L69,6.1z M69,7.5v0.7l-3.5-2.4V5.2L69,7.5z M69,9v0.7l-3.5-2.4V6.6L69,9z
	 M69,10.5v0.7l-3.5-2.4V8.1L69,10.5z M69,11.9v0.7l-3.5-2.4V9.5L69,11.9z M69,13.4v0.7l-3.5-2.4V11L69,13.4z M69,14.9v0.7l-3.5-2.4
	v-0.7L69,14.9z M69,16.4v0.7l-3.5-2.4V14L69,16.4z M69,17.8v0.7l-3.5-2.4v-0.7C65.5,15.4,69,17.8,69,17.8z M69,19.3V20l-3.5-2.4
	v-0.7L69,19.3z M69,20.8v0.7L65.5,19v-0.7L69,20.8z M69,22.2v0.7l-3.5-2.4v-0.7L69,22.2z M69,23.7v0.7L65.5,22v-0.7L69,23.7z
	 M65.5,22.7l2,1.4h-1l-1-0.7C65.5,23.4,65.5,22.7,65.5,22.7z M66.8,28l2.6,1.8h-1.1L65.8,28H66.8z M67.1,3.3l2.6,1.8H69v0.3l-3-2.1
	C66,3.3,67.1,3.3,67.1,3.3z M68.4,27.7l3.1,2.1h-1L67.9,28h0.6L68.4,27.7L68.4,27.7z M69.1,3.3l2.6,1.8h-1.1L68,3.3
	C68,3.3,69.1,3.3,69.1,3.3z M71.9,27.2v0.7l-3.5-2.4v-0.7L71.9,27.2z M71.9,28.7v0.7L68.4,27v-0.7C68.4,26.3,71.9,28.7,71.9,28.7z
	 M72,3.9v0.7l-1.8-1.3h1L72,3.9z M73.9,6.6l2.6,1.8h-0.2l-3.2-1.8C73.1,6.6,73.9,6.6,73.9,6.6z M76,6.6l2.6,1.8h-1.1l-2.6-1.8H76z
	 M80,2.1v0.7l-3.4-2.4V0.1L79.8,2C79.8,2,80,2.1,80,2.1z M80,3.6v0.7l-3.4-2.4V1.2C76.6,1.2,80,3.6,80,3.6z M80,5.1v0.7l-3.4-2.4
	V2.7C76.6,2.7,80,5.1,80,5.1z M80,6.5v0.7l-3.4-2.4V4.1C76.6,4.1,80,6.5,80,6.5z M80,8v0.4h-0.4l-3.1-2.1V5.6L80,8z"/>
</svg>
